rospo-dark/16x16/actions/raindrop.svg

<svg height="16" viewBox="0 0 16 16" width="16" xmlns="http://www.w3.org/2000/svg"><path d="m8 0c-.48646 1.7025-1.6626 3.17195-2.1875 4.34375-.1837.3484-.3125.7336-.3125 1.15625 0 1.385 1.115 2.5 2.5 2.5s2.5-1.115 2.5-2.5c0-.4227-.0975-.8079-.28125-1.15625-.52491-1.1718-1.73225-2.64115-2.21875-4.34375zm-4.5 8c-.48646 1.7025-1.6626 3.17195-2.1875 4.34375-.1837.3484-.3125.7336-.3125 1.15625 0 1.385 1.115 2.5 2.5 2.5s2.5-1.115 2.5-2.5c0-.4227-.0975-.8079-.28125-1.15625-.52491-1.1718-1.73225-2.64115-2.21875-4.34375zm9 0c-.48646 1.7025-1.6626 3.17195-2.1875 4.34375-.1837.3484-.3125.7336-.3125 1.15625 0 1.385 1.115 2.5 2.5 2.5s2.5-1.115 2.5-2.5c0-.4227-.0975-.8079-.28125-1.15625-.52491-1.1718-1.73225-2.64115-2.21875-4.34375z" fill="#d3dae3"/></svg>

<?xml version="1.0" encoding="UTF-8" standalone="no"?>
<svg xmlns="http://www.w3.org/2000/svg" width="22" height="22" viewBox="0 0 22 22">
 <defs>
  <style type="text/css" id="current-color-scheme">
   .ColorScheme-Text { color:#d3dae3; } .ColorScheme-Highlight { color:#5294e2; }
  </style>
 </defs>
 <path style="fill:currentColor;opacity:1" class="ColorScheme-Text" transform="translate(3 3)" d="M 8 0 C 7.51354 1.7025 6.3374 3.17195 5.8125 4.34375 C 5.6288 4.69215 5.5 5.07735 5.5 5.5 C 5.5 6.885 6.615 8 8 8 C 9.385 8 10.5 6.885 10.5 5.5 C 10.5 5.0773 10.4025 4.6921 10.21875 4.34375 C 9.69384 3.17195 8.4865 1.7026 8 0 z M 3.5 8 C 3.01354 9.7025 1.8374 11.17195 1.3125 12.34375 C 1.1288 12.69215 1 13.07735 1 13.5 C 1 14.885 2.115 16 3.5 16 C 4.885 16 6 14.885 6 13.5 C 6 13.0773 5.9025 12.6921 5.71875 12.34375 C 5.19384 11.17195 3.9865 9.7026 3.5 8 z M 12.5 8 C 12.01354 9.7025 10.8374 11.17195 10.3125 12.34375 C 10.1288 12.69215 10 13.07735 10 13.5 C 10 14.885 11.115 16 12.5 16 C 13.885 16 15 14.885 15 13.5 C 15 13.0773 14.9025 12.6921 14.71875 12.34375 C 14.19384 11.17195 12.9865 9.7026 12.5 8 z"/>
</svg>
